X:15624
T:Smash the Windows
R:jig
C:Trad
M:6/8
L:1/8
K:D
|:DED F2A|d2f ecA|G2B F2A|E2F GFE|
DED F2A|d2f ecA|Bgf edc|1 d3 d3:|2 d3 d2|
|:f|a2f d2e|f2g agf|g2e cde|
e2f gfe||1 a2f d2e|f2g agf|g2e cde|d3 d2:||2 fed gfe|agf bag|fed cde|d3 d3||
